Numix-GalliumOS/64/mimetypes/x-office-address-book.svg

<svg xmlns="http://www.w3.org/2000/svg" xmlns:xlink="http://www.w3.org/1999/xlink" width="64px" height="64px" viewBox="0 0 64 64" version="1.1">
<g id="surface1">
<path style=" stroke:none;fill-rule:nonzero;fill:rgb(80.392157%,60.392157%,40%);fill-opacity:1;" d="M 10.671875 0 C 9.296875 0 8 1.355469 8 2.789062 L 8 61.210938 C 8 62.566406 9.375 64 10.671875 64 L 53.328125 64 C 54.625 64 56 62.566406 56 61.210938 L 56 18 L 38 0 Z M 10.671875 0 "/>
<path style=" stroke:none;fill-rule:nonzero;fill:rgb(0%,0%,0%);fill-opacity:0.196078;" d="M 42 18 L 56 32 L 56 18 Z M 42 18 "/>
<path style=" stroke:none;fill-rule:nonzero;fill:rgb(100%,100%,100%);fill-opacity:0.392157;" d="M 38 0 L 55.984375 18 L 40.757812 18 C 39.410156 18 38 16.574219 38 15.226562 Z M 38 0 "/>
<path style=" stroke:none;fill-rule:nonzero;fill:rgb(100%,100%,100%);fill-opacity:1;" d="M 30.664062 24 L 33.335938 24 C 37.335938 24 38 28.695312 38 28.695312 L 38 33.359375 C 38 34.933594 34.664062 38.136719 34.664062 38.136719 L 34.664062 39.707031 L 40 42.800781 L 40 45.945312 L 31.335938 46 L 24 46 L 24 42.859375 L 29.335938 39.714844 L 29.335938 38.144531 C 29.335938 38.144531 25.992188 34.957031 26 33.382812 L 26 28.71875 C 26 28.71875 26.664062 24 30.664062 24 Z M 30.664062 24 "/>
</g>
</svg>

<svg xmlns="http://www.w3.org/2000/svg" viewBox="0 0 64 64">
 <g>
  <path d="m 10.672 0 c -1.375 0 -2.672 1.355 -2.672 2.789 l 0 58.42 c 0 1.355 1.375 2.789 2.672 2.789 l 42.656 0 c 1.297 0 2.672 -1.434 2.672 -2.789 l 0 -43.21 l -18 -18 m -27.328 0" style="fill:#cd9a66;fill-opacity:1;stroke:none;fill-rule:nonzero"/>
  <path d="m 42 18 l 14 14 l 0 -14 m -14 0" style="fill:#000;fill-opacity:0.196;stroke:none;fill-rule:nonzero"/>
  <path d="m 38 0 l 17.984 18 l -15.227 0 c -1.348 0 -2.758 -1.426 -2.758 -2.773 m 0 -15.227" style="fill:#fff;fill-opacity:0.392;stroke:none;fill-rule:nonzero"/>
  <path d="m 30.664 24 l 2.672 0 c 4 0 4.664 4.695 4.664 4.695 l 0 4.664 c 0 1.574 -3.336 4.777 -3.336 4.777 l 0 1.57 l 5.336 3.094 l 0 3.145 l -8.664 0.055 l -7.336 0 l 0 -3.141 l 5.336 -3.145 l 0 -1.57 c 0 0 -3.344 -3.188 -3.336 -4.762 l 0 -4.664 c 0 0 0.664 -4.719 4.664 -4.719 m 0 0" style="fill:#fff;fill-opacity:1;stroke:none;fill-rule:nonzero"/>
 </g>
</svg>
